actions/16/go-previous-context.svg

<svg xmlns="http://www.w3.org/2000/svg" viewBox="0 0 16 16">
  <defs id="defs3051">
<style type="text/css" id="current-color-scheme">.ColorScheme-Text {color:#fcfcfc;}</style>
  </defs>
 <path style="fill:currentColor;fill-opacity:1;stroke:none" 
       d="M 6,2 0.70703125,7.2929688 0,8 0.70703125,8.7070312 6,14 h 8 c 0,0 2,0 2,-2 0,-2 0,-6 0,-8 0,-2 -2,-2 -2,-2 z m 3,2 h 1 V 5 H 9 C 8.44778,5 8,5.44771 8,6 V 7 C 8,7.38251 7.86072,7.73504 7.625,8 7.86072,8.26497 8,8.6175 8,9 v 1 c 0,0.55222 0.44771,1 1,1 h 1 v 1 H 9 C 7.89549,12 7,11.10452 7,10 V 9 C 7,8.72385 6.77614,8.5 6.5,8.5 H 6 v -1 H 6.5 C 6.77614,7.5 7,7.27616 7,7 V 6 C 7,4.89549 7.89548,4 9,4 Z m 2,0 h 1 c 1.10452,0 2,0.89549 2,2 v 1 c 0,0.27616 0.22386,0.5 0.5,0.5 H 15 v 1 H 14.5 C 14.22386,8.5 14,8.72385 14,9 v 1 c 0,1.10452 -0.89549,2 -2,2 h -1 v -1 h 1 c 0.55229,0 1,-0.44778 1,-1 V 9 C 13,8.6175 13.13928,8.26497 13.375,8 13.13928,7.73504 13,7.38251 13,7 V 6 C 13,5.44771 12.55222,5 12,5 h -1 z"
     class="ColorScheme-Text"
     />
</svg>

<svg xmlns="http://www.w3.org/2000/svg" viewBox="0 0 16 16">
  <defs id="defs3051">
    <style type="text/css" id="current-color-scheme">
      .ColorScheme-Text {
        color:#eff0f1;
      }
      </style>
  </defs>
 <path style="fill:currentColor;fill-opacity:1;stroke:none" 
       d="M 6 2 L 0.70703125 7.2929688 L 0 8 L 0.70703125 8.7070312 L 6 14 L 15 14 L 16 14 L 16 2 L 15 2 L 6 2 z M 9 4 L 10 4 L 10 5 L 9 5 C 8.44778 5 8 5.44771 8 6 L 8 7 C 8 7.38251 7.86072 7.73504 7.625 8 C 7.86072 8.26497 8 8.6175 8 9 L 8 10 C 8 10.55222 8.44771 11 9 11 L 10 11 L 10 12 L 9 12 C 7.89549 12 7 11.10452 7 10 L 7 9 C 7 8.72385 6.77614 8.5 6.5 8.5 L 6 8.5 L 6 7.5 L 6.5 7.5 C 6.77614 7.5 7 7.27616 7 7 L 7 6 C 7 4.89549 7.89548 4 9 4 z M 11 4 L 12 4 C 13.10452 4 14 4.89549 14 6 L 14 7 C 14 7.27616 14.22386 7.5 14.5 7.5 L 15 7.5 L 15 8.5 L 14.5 8.5 C 14.22386 8.5 14 8.72385 14 9 L 14 10 C 14 11.10452 13.10451 12 12 12 L 11 12 L 11 11 L 12 11 C 12.55229 11 13 10.55222 13 10 L 13 9 C 13 8.6175 13.13928 8.26497 13.375 8 C 13.13928 7.73504 13 7.38251 13 7 L 13 6 C 13 5.44771 12.55222 5 12 5 L 11 5 L 11 4 z "
     class="ColorScheme-Text"
     />
</svg>
